X: 8337
T: Cotter's Men
R: jig
M: 6/8
K: Gmajor
DG|:AAA ABc|BAG dcB|AcB ABA|EE/E/E BAB|
EE/E/E BAB|dcB cBA|BBB BAG|AAA ADG:|
AGA cBA|eAA ede|ged eee|aea age|
ggg geg|b2 ab(2ag|aee aee|aeg aaa|
age gag|e2 eedB|GAAA Bc|Bcd e2g|
age dcA|BBB BAG|AAA A||

